icons/linear-ele-food-fork-spoon.svg

<svg xmlns="http://www.w3.org/2000/svg" width="32px" height="32px" viewBox="0 0 32 32" version="1.1">
    <title>linear-ele-food-fork-spoon</title>
    <g id="linear-ele-food-fork-spoon" stroke-width="1" fill-rule="evenodd">
        <path d="M13,2 C13.5522847,2 14,2.44771525 14,3 L14,10 C14,12.4185387 12.2828356,14.4360122 10.0011864,14.8997409 L10,29 C10,29.5522847 9.55228475,30 9,30 C8.44771525,30 8,29.5522847 8,29 L7.99981203,14.8999437 C5.71766536,14.4366008 4,12.4188915 4,10 L4,3 C4,2.44771525 4.44771525,2 5,2 C5.55228475,2 6,2.44771525 6,3 L6,10 C6,11.3062521 6.8348501,12.4175144 8.00008893,12.8293257 L8,3 C8,2.44771525 8.44771525,2 9,2 C9.55228475,2 10,2.44771525 10,3 L10.0009007,12.8289758 C11.1656226,12.4168852 12,11.3058822 12,10 L12,3 C12,2.44771525 12.4477153,2 13,2 Z M22,2 C25.3999619,2 28,5.64005335 28,10 C28,13.9208962 25.8972481,17.2595866 23.000964,17.8922443 L23,29 C23,29.5522847 22.5522847,30 22,30 C21.4477153,30 21,29.5522847 21,29 L21.0000319,17.8924617 C18.103234,17.2603519 16,13.9213455 16,10 C16,5.64005335 18.6000381,2 22,2 Z M22,4 C19.8771144,4 18,6.62796016 18,10 C18,13.3720398 19.8771144,16 22,16 C24.1228856,16 26,13.3720398 26,10 C26,6.62796016 24.1228856,4 22,4 Z" id="&#24418;&#29366;" fill-rule="nonzero" />
    </g>
</svg>

<svg xmlns="http://www.w3.org/2000/svg" viewBox="0 0 32 32"><path fill="currentColor" d="M13 2a1 1 0 0 1 1 1v7a5.002 5.002 0 0 1-3.999 4.9L10 29a1 1 0 0 1-2 0V14.9A5.002 5.002 0 0 1 4 10V3a1 1 0 1 1 2 0v7c0 1.306.835 2.418 2 2.83V3a1 1 0 1 1 2 0v9.829A3.001 3.001 0 0 0 12 10V3a1 1 0 0 1 1-1m9 0c3.4 0 6 3.64 6 8 0 3.92-2.103 7.26-4.999 7.892L23 29a1 1 0 0 1-2 0V17.892c-2.897-.632-5-3.97-5-7.892 0-4.36 2.6-8 6-8m0 2c-2.123 0-4 2.628-4 6s1.877 6 4 6 4-2.628 4-6-1.877-6-4-6"/></svg>
